src/locked.svg

<?xml version="1.0" encoding="utf-8"?>
<!-- Generated by IcoMoon.io -->
<!DOCTYPE svg PUBLIC "-//W3C//DTD SVG 1.1//EN" "http://www.w3.org/Graphics/SVG/1.1/DTD/svg11.dtd">
<svg version="1.1" xmlns="http://www.w3.org/2000/svg" xmlns:xlink="http://www.w3.org/1999/xlink" width="512" height="512" viewBox="0 0 512 512">
<path fill="#000000" d="M86.4 480h339.2c12.3 0 22.4-9.9 22.4-22.1v-211.9c0-12.2-10-22-22.4-22h-21.6v-30.9c0-41.5-16.2-87.6-42.6-115.4-26.3-27.8-64-45.7-105.3-45.7-0.1 0-0.1 0-0.1 0s-0.1 0-0.1 0c-41.3 0-79 17.9-105.3 45.6-26.4 27.8-42.6 73.9-42.6 115.4v31h-21.6c-12.4 0-22.4 9.9-22.4 22v211.9c0 12.2 10 22.1 22.4 22.1zM161 193.1c0-27.3 9.9-61.1 28.1-80.3v0-0.3c17.6-18.6 41.9-29.5 66.8-29.5h0.2c24.9 0 49.2 10.9 66.8 29.5v0.2l-0.1 0.1c18.3 19.2 28.1 53 28.1 80.3v30.9h-189.9v-30.9z"></path>
</svg>

<?xml version="1.0" encoding="utf-8"?>
<!-- Generator: Adobe Illustrator 16.2.1, SVG Export Plug-In . SVG Version: 6.00 Build 0)  -->
<!DOCTYPE svg PUBLIC "-//W3C//DTD SVG 1.1//EN" "http://www.w3.org/Graphics/SVG/1.1/DTD/svg11.dtd">
<svg version="1.1" id="Layer_1" xmlns="http://www.w3.org/2000/svg" xmlns:xlink="http://www.w3.org/1999/xlink" x="0px" y="0px"
	 width="512px" height="512px" viewBox="0 0 512 512" style="enable-background:new 0 0 512 512;" xml:space="preserve">
<path d="M86.4,480h339.2c12.3,0,22.4-9.9,22.4-22.1V246c0-12.2-10-22-22.4-22H404v-30.9c0-41.5-16.2-87.6-42.6-115.4
	C335.1,49.9,297.4,32,256.1,32c-0.1,0-0.1,0-0.1,0c0,0-0.1,0-0.1,0c-41.3,0-79,17.9-105.3,45.6c-26.4,27.8-42.6,73.9-42.6,115.4V224
	H89h-2.6C74,224,64,233.9,64,246v211.9C64,470.1,74,480,86.4,480z M161,193.1c0-27.3,9.9-61.1,28.1-80.3l0,0l0-0.3
	C206.7,93.9,231,83,255.9,83h0.1h0.1c24.9,0,49.2,10.9,66.8,29.5l0,0.2l-0.1,0.1c18.3,19.2,28.1,53,28.1,80.3V224h-17.5h-155H161
	V193.1z"/>
</svg>
